X:019 
T:Boy in the Tree (reel), The 
S:Jack Wade
F:file ID: cre.4/019boy_t
B:CRE4.094 (Buachaill sa Chrann)
L:1/8
M:4/4
Q:180
R:reel
K:Am
Bd|e2dB GABd|eB B2 AGED|EBAG ABcd|eage d2 Bd|
eBdB AGED|GDBD GABd|egdB GABd|egdB A2:|
Bd|e2ae beae|dedB GABd|e2ae beae|dBGB ABcd|
eAaA gA^fA|BcdB GABd|(3ege a^f gedB|GABG A2:|

%%%

